X: 043
M: C
L: 1/8
K: G
|:\
g2dB cecA | BdBG FAD2 |\
|:\
fafd  gbge | agfe d2D2 |\
g2dB cecA | BdBG FADc |\

